svgs/duotone/arrows-cross.svg

<svg xmlns="http://www.w3.org/2000/svg" viewBox="0 0 448 512"><!-- Font Awesome Pro 6.0.0-alpha2 by @fontawesome - https://fontawesome.com License - https://fontawesome.com/license (Commercial License) --><defs><style>.fa-secondary{opacity:.4}</style></defs><path d="M54.625 41.375C42.125 28.875 21.875 28.875 9.375 41.375C-3.117 53.867 -3.133 74.117 9.375 86.625L178.75 256L224 210.75L54.625 41.375ZM416 288C398.313 288 384 302.312 384 320V370.75L269.25 256L224 301.25L338.75 416H288C270.313 416 256 430.312 256 448S270.313 480 288 480H416C420.164 480 424.313 479.152 428.219 477.539C436.059 474.297 442.297 468.059 445.539 460.219C447.152 456.312 448 452.164 448 448V320C448 302.312 433.688 288 416 288Z" class="fa-secondary"/><path d="M445.537 51.781C442.295 43.941 436.059 37.703 428.217 34.461C424.311 32.848 420.162 32 416 32H288C270.312 32 256 46.312 256 64S270.312 96 288 96H338.75L9.375 425.375C-3.125 437.875 -3.125 458.125 9.375 470.625C21.867 483.117 42.117 483.133 54.625 470.625L384 141.25V192C384 209.688 398.312 224 416 224S448 209.688 448 192V64C448 59.836 447.152 55.688 445.537 51.781Z" class="fa-primary"/></svg>

<svg xmlns="http://www.w3.org/2000/svg" viewBox="0 0 448 512"><!--! Font Awesome Pro 6.3.0 by @fontawesome - https://fontawesome.com License - https://fontawesome.com/license (Commercial License) Copyright 2023 Fonticons, Inc. --><defs><style>.fa-secondary{opacity:.4}</style></defs><path class="fa-primary" d="M445.5 51.78c-3.242-7.84-9.479-14.08-17.32-17.32C424.3 32.85 420.2 32 416 32h-128c-17.69 0-32 14.31-32 32s14.31 32 32 32h50.75L9.375 425.4c-12.5 12.5-12.5 32.75 0 45.25c12.49 12.49 32.74 12.51 45.25 0L384 141.3V192c0 17.69 14.31 32 32 32s32-14.31 32-32V64C448 59.84 447.2 55.69 445.5 51.78z"/><path class="fa-secondary" d="M54.63 41.38c-12.5-12.5-32.75-12.5-45.25 0c-12.49 12.49-12.51 32.74 0 45.25L178.8 256L224 210.8L54.63 41.38zM416 288c-17.69 0-32 14.31-32 32v50.75L269.3 256L224 301.3L338.8 416H288c-17.69 0-32 14.31-32 32s14.31 32 32 32h128c4.164 0 8.312-.8477 12.22-2.461c7.84-3.242 14.08-9.48 17.32-17.32C447.2 456.3 448 452.2 448 448v-128C448 302.3 433.7 288 416 288z"/></svg>
